img/svg_icons/yt.svg

<svg width="14" height="10" viewBox="0 0 14 10" fill="none" xmlns="http://www.w3.org/2000/svg">
<path d="M13.405 1.115C13.0252 0.4395 12.6131 0.31525 11.774 0.268C10.9358 0.211125 8.82787 0.1875 7.00175 0.1875C5.17212 0.1875 3.06337 0.211125 2.226 0.267125C1.38862 0.31525 0.975625 0.438625 0.592375 1.115C0.20125 1.78962 0 2.95163 0 4.99738C0 4.99913 0 5 0 5C0 5.00175 0 5.00263 0 5.00263V5.00438C0 7.04138 0.20125 8.21213 0.592375 8.87975C0.975625 9.55525 1.38775 9.67775 2.22512 9.73463C3.06337 9.78363 5.17212 9.8125 7.00175 9.8125C8.82787 9.8125 10.9357 9.78362 11.7749 9.7355C12.614 9.67862 13.0261 9.55613 13.4059 8.88063C13.8005 8.213 14 7.04225 14 5.00525C14 5.00525 14 5.00263 14 5.00088C14 5.00088 14 4.99913 14 4.99825C14 2.95163 13.8005 1.78962 13.405 1.115ZM5.25 7.625V2.375L9.625 5L5.25 7.625Z" fill="#BABABA"/>
</svg>

<svg width="14" height="10" fill="none" xmlns="http://www.w3.org/2000/svg"><path d="M13.405 1.115c-.38-.675-.792-.8-1.631-.847-.838-.057-2.946-.08-4.772-.08-1.83 0-3.939.023-4.776.08-.837.047-1.25.17-1.634.847C.202 1.79 0 2.952 0 4.997v.007C0 7.041.201 8.212.592 8.88c.384.675.796.798 1.633.855.838.049 2.947.078 4.777.078 1.826 0 3.934-.03 4.773-.078.839-.056 1.251-.179 1.63-.854.396-.668.595-1.839.595-3.876v-.007c0-2.046-.2-3.208-.595-3.883zM5.25 7.625v-5.25L9.625 5 5.25 7.625z" fill="#BABABA"/></svg>
